X: 24687
T: MacLeod's Farewell
R: reel
M: 4/4
K: Dmajor
F2 BF AFEF|D2 DE FABd|e2 fd efed|B2 de dBAG|
F2 BF AFEF|D2 DE FABd|e2 fd efdB|ABde d2:|
A3 f edfd|A3 f edfd|ABdA BdAB|dBAF EFDE|
F2 BF AFEF|D2 DE FABd|e2 fd efdB|ABde d2:|

